icons/SVGs/twiddler.svg

<?xml version="1.0" encoding="UTF-8" standalone="no"?>
<svg
   xmlns:dc="http://purl.org/dc/elements/1.1/"
   xmlns:cc="http://creativecommons.org/ns#"
   xmlns:rdf="http://www.w3.org/1999/02/22-rdf-syntax-ns#"
   xmlns:svg="http://www.w3.org/2000/svg"
   xmlns="http://www.w3.org/2000/svg"
   xmlns:sodipodi="http://sodipodi.sourceforge.net/DTD/sodipodi-0.dtd"
   xmlns:inkscape="http://www.inkscape.org/namespaces/inkscape"
   width="106.66666"
   height="106.66666"
   viewBox="0 0 100 100"
   id="svg34637"
   version="1.1"
   inkscape:version="0.92.1 r15371"
   sodipodi:docname="twiddler.svg">
  <defs
     id="defs34639" />
  <sodipodi:namedview
     id="base"
     pagecolor="#ffffff"
     bordercolor="#666666"
     borderopacity="1.0"
     inkscape:pageopacity="0.0"
     inkscape:pageshadow="2"
     inkscape:zoom="6.2240327"
     inkscape:cx="43.342284"
     inkscape:cy="34.661229"
     inkscape:document-units="px"
     inkscape:current-layer="layer1"
     showgrid="false"
     units="px"
     inkscape:window-width="1920"
     inkscape:window-height="1200"
     inkscape:window-x="0"
     inkscape:window-y="0"
     inkscape:window-maximized="0" />
  <metadata
     id="metadata34642">
    <rdf:RDF>
      <cc:Work
         rdf:about="">
        <dc:format>image/svg+xml</dc:format>
        <dc:type
           rdf:resource="http://purl.org/dc/dcmitype/StillImage" />
        <dc:title></dc:title>
      </cc:Work>
    </rdf:RDF>
  </metadata>
  <g
     inkscape:label="Layer 1"
     inkscape:groupmode="layer"
     id="layer1"
     transform="translate(0,-952.36216)">
    <g
       transform="matrix(1.3338085,0,0,1.3338085,-17.547933,935.33811)"
       id="g3"
       style="clip-rule:evenodd;fill:#000000;fill-rule:evenodd;stroke-linecap:round;stroke-linejoin:round;stroke-miterlimit:1.41420996">
      <path
         inkscape:connector-curvature="0"
         d="m 62.586,23.928 c 3.205,-0.002 2.963,-4.15 -0.008,-4.411 -1.441,-0.126 -4.693,-0.412 -5.822,-0.511 -1.117,-0.098 -1.947,-1.033 -1.949,-1.938 -0.002,-2.844 -0.74,-4.329 -3.428,-4.327 l -2.93,0.002 c -2.689,0.002 -3.424,1.487 -3.422,4.333 0,0.905 -0.83,1.84 -1.945,1.939 -1.129,0.103 -4.381,0.393 -5.818,0.521 -2.975,0.265 -3.213,4.413 -0.004,4.411 z M 49.979,17.819 c -0.916,-10e-4 -1.656,-0.739 -1.66,-1.656 -0.002,-0.917 0.74,-1.66 1.658,-1.661 0.918,0 1.658,0.742 1.662,1.657 0.002,0.915 -0.743,1.659 -1.66,1.66 z"
         id="path5" />
    </g>
    <path
       style="clip-rule:evenodd;fill:#000000;fill-rule:evenodd;stroke-linecap:round;stroke-linejoin:round;stroke-miterlimit:1.41420996"
       d="m 82.818359,12.435547 -11.791015,0.01367 c -0.09703,0.9404 -0.430603,2.105356 -1.0625,2.785156 -0.573556,0.6242 -1.629379,1.363841 -3.363282,1.369141 l -34.960937,0.01953 c -1.737934,0 -2.790354,-0.745588 -3.365234,-1.367188 C 27.636508,14.574256 27.30593,13.4083 27.199219,12.4707 H 15.421875 l 0.04492,86.892578 67.396484,-0.03906 -0.04492,-86.886719 z m -28.509765,13.798828 5.115234,3.830078 c 0,0 -3.085988,4.524484 -3.253906,5.089844 -0.352668,0.76428 -1.533594,2.85297 2.183594,3.9375 3.735923,1.15444 5.143384,-0.653784 5.367187,-1.308594 0.167332,-0.56567 1.953125,-5.117187 1.953125,-5.117187 l 6.13086,1.228515 c 0,0 -2.565484,8.582387 -2.826172,9.097657 -1.877035,3.40269 -5.996838,4.150814 -8.50586,4.302734 -2.268419,0.15959 -2.900025,0.776187 -4.332031,2.867187 L 39.339844,81.935547 c -1.394653,2.2304 -5.096775,2.756769 -7.494141,1.542969 -2.340662,-1.3039 -3.43939,-4.372847 -1.970703,-6.623047 L 49.345703,46.990234 c 1.4311,-2.39234 1.387876,-3.922383 0.458985,-5.308593 -1.003862,-1.36613 -2.206369,-4.041891 -1.332032,-6.431641 1.82098,-5.09445 5.835938,-9.015625 5.835938,-9.015625 z M 35.75,77.230469 l -3.494141,0.935547 0.816407,3.347656 3.568359,-0.955078 z"
       id="path7"
       transform="translate(0,952.36216)"
       inkscape:connector-curvature="0"
       sodipodi:nodetypes="cccccccccccccccccccccccccccccccccc" />
    <g
       id="text36096"
       style="font-style:normal;font-variant:normal;font-weight:bold;font-stretch:normal;font-size:39.21897125px;line-height:125%;font-family:'League Spartan';-inkscape-font-specification:'League Spartan Bold';letter-spacing:0px;word-spacing:0px;clip-rule:evenodd;fill:#000000;fill-opacity:1;fill-rule:evenodd;stroke:none;stroke-width:1px;stroke-linecap:butt;stroke-linejoin:miter;stroke-miterlimit:1.41420996;stroke-opacity:1"
       transform="translate(-27.60776,-721.52939)" />
    <g
       transform="translate(-27.60776,-723.52939)"
       id="text36096-6"
       style="font-style:normal;font-variant:normal;font-weight:bold;font-stretch:normal;font-size:39.21897125px;line-height:125%;font-family:'League Spartan';-inkscape-font-specification:'League Spartan Bold';letter-spacing:0px;word-spacing:0px;clip-rule:evenodd;fill:#000000;fill-opacity:1;fill-rule:evenodd;stroke:none;stroke-width:1px;stroke-linecap:butt;stroke-linejoin:miter;stroke-miterlimit:1.41420996;stroke-opacity:1" />
  </g>
</svg>

<?xml version="1.0" encoding="UTF-8" standalone="no"?>
<svg
   xmlns:dc="http://purl.org/dc/elements/1.1/"
   xmlns:cc="http://creativecommons.org/ns#"
   xmlns:rdf="http://www.w3.org/1999/02/22-rdf-syntax-ns#"
   xmlns:svg="http://www.w3.org/2000/svg"
   xmlns="http://www.w3.org/2000/svg"
   xmlns:sodipodi="http://sodipodi.sourceforge.net/DTD/sodipodi-0.dtd"
   xmlns:inkscape="http://www.inkscape.org/namespaces/inkscape"
   width="100"
   height="100"
   viewBox="0 0 100 100"
   id="svg34637"
   version="1.1"
   inkscape:version="0.91 r13725"
   sodipodi:docname="twiddler.svg">
  <defs
     id="defs34639" />
  <sodipodi:namedview
     id="base"
     pagecolor="#ffffff"
     bordercolor="#666666"
     borderopacity="1.0"
     inkscape:pageopacity="0.0"
     inkscape:pageshadow="2"
     inkscape:zoom="6.3573319"
     inkscape:cx="36.539564"
     inkscape:cy="41.463949"
     inkscape:document-units="px"
     inkscape:current-layer="layer1"
     showgrid="false"
     units="px"
     inkscape:window-width="1756"
     inkscape:window-height="1002"
     inkscape:window-x="111"
     inkscape:window-y="27"
     inkscape:window-maximized="0" />
  <metadata
     id="metadata34642">
    <rdf:RDF>
      <cc:Work
         rdf:about="">
        <dc:format>image/svg+xml</dc:format>
        <dc:type
           rdf:resource="http://purl.org/dc/dcmitype/StillImage" />
        <dc:title />
      </cc:Work>
    </rdf:RDF>
  </metadata>
  <g
     inkscape:label="Layer 1"
     inkscape:groupmode="layer"
     id="layer1"
     transform="translate(0,-952.36216)">
    <g
       transform="matrix(1.3338085,0,0,1.3338085,-17.547933,935.33811)"
       id="g3"
       style="clip-rule:evenodd;fill:#000000;fill-rule:evenodd;stroke-linecap:round;stroke-linejoin:round;stroke-miterlimit:1.41420996">
      <path
         inkscape:connector-curvature="0"
         d="m 62.586,23.928 c 3.205,-0.002 2.963,-4.15 -0.008,-4.411 -1.441,-0.126 -4.693,-0.412 -5.822,-0.511 -1.117,-0.098 -1.947,-1.033 -1.949,-1.938 -0.002,-2.844 -0.74,-4.329 -3.428,-4.327 l -2.93,0.002 c -2.689,0.002 -3.424,1.487 -3.422,4.333 0,0.905 -0.83,1.84 -1.945,1.939 -1.129,0.103 -4.381,0.393 -5.818,0.521 -2.975,0.265 -3.213,4.413 -0.004,4.411 L 62.586,23.928 Z M 49.979,17.819 c -0.916,-10e-4 -1.656,-0.739 -1.66,-1.656 -0.002,-0.917 0.74,-1.66 1.658,-1.661 0.918,0 1.658,0.742 1.662,1.657 0.002,0.915 -0.743,1.659 -1.66,1.66 z"
         id="path5" />
    </g>
    <path
       style="clip-rule:evenodd;fill:#000000;fill-rule:evenodd;stroke-linecap:round;stroke-linejoin:round;stroke-miterlimit:1.41420996"
       d="M 82.818359 12.435547 L 71.027344 12.449219 C 70.930314 13.389619 70.596741 14.554575 69.964844 15.234375 C 69.391288 15.858575 68.335465 16.598216 66.601562 16.603516 L 31.640625 16.623047 C 29.902691 16.623047 28.850271 15.877459 28.275391 15.255859 C 27.636508 14.574259 27.30593 13.408303 27.199219 12.470703 L 15.421875 12.470703 L 15.466797 99.363281 L 82.863281 99.324219 L 82.818359 12.4375 L 82.818359 12.435547 z M 54.308594 26.234375 L 59.423828 30.064453 C 59.423828 30.064453 56.33784 34.588937 56.169922 35.154297 C 55.817254 35.918577 54.636328 38.007267 58.353516 39.091797 C 62.089439 40.246237 63.4969 38.438013 63.720703 37.783203 C 63.888035 37.217533 65.673828 32.666016 65.673828 32.666016 L 71.804688 33.894531 C 71.804688 33.894531 69.239204 42.476918 68.978516 42.992188 C 67.101481 46.394878 62.981678 47.143002 60.472656 47.294922 C 58.204237 47.454512 57.572631 48.071109 56.140625 50.162109 L 39.339844 81.935547 C 37.945191 84.165947 34.243069 84.692316 31.845703 83.478516 C 29.505041 82.174616 28.406313 79.105669 29.875 76.855469 L 49.345703 46.990234 C 50.776803 44.597894 50.733579 43.067851 49.804688 41.681641 C 48.800826 40.315511 47.598319 37.63975 48.472656 35.25 C 50.293636 30.15555 54.308594 26.234375 54.308594 26.234375 z M 25.800781 29.779297 L 37.179688 29.779297 L 37.179688 33.017578 L 33.333984 33.017578 L 33.333984 45.964844 L 29.646484 45.964844 L 29.646484 33.017578 L 25.800781 33.017578 L 25.800781 29.779297 z M 54.179688 74.990234 L 57.609375 74.990234 L 59.921875 84.275391 L 60.005859 84.275391 L 62.466797 74.990234 L 64.796875 74.990234 L 67.255859 84.275391 L 67.337891 84.275391 L 69.652344 74.990234 L 73.064453 74.990234 L 69.208984 88.523438 L 65.796875 88.523438 L 63.630859 80.927734 L 61.464844 88.523438 L 58.035156 88.523438 L 54.179688 74.990234 z M 35.75 77.230469 L 32.255859 78.166016 L 33.072266 81.513672 L 36.640625 80.558594 L 35.75 77.230469 z "
       id="path7"
       transform="translate(0,952.36216)" />
    <g
       id="text36096"
       style="font-style:normal;font-variant:normal;font-weight:bold;font-stretch:normal;font-size:39.21897125px;line-height:125%;font-family:'League Spartan';-inkscape-font-specification:'League Spartan Bold';letter-spacing:0px;word-spacing:0px;clip-rule:evenodd;fill:#000000;fill-opacity:1;fill-rule:evenodd;stroke:none;stroke-width:1px;stroke-linecap:butt;stroke-linejoin:miter;stroke-miterlimit:1.41420996;stroke-opacity:1"
       transform="translate(-27.60776,-721.52939)" />
    <g
       transform="translate(-27.60776,-723.52939)"
       id="text36096-6"
       style="font-style:normal;font-variant:normal;font-weight:bold;font-stretch:normal;font-size:39.21897125px;line-height:125%;font-family:'League Spartan';-inkscape-font-specification:'League Spartan Bold';letter-spacing:0px;word-spacing:0px;clip-rule:evenodd;fill:#000000;fill-opacity:1;fill-rule:evenodd;stroke:none;stroke-width:1px;stroke-linecap:butt;stroke-linejoin:miter;stroke-miterlimit:1.41420996;stroke-opacity:1" />
  </g>
</svg>
